X:951
T:Xota d'Os Coutos (MG 87)
T:Jota d'Os Coutos (MG 87)
R:Xota
C:Versión del Gaiteru Clemente de Valdeferreiros
S:Música Tradicional Asturiana, (C) Tello & Tito. Asturies, 2001.
S:http://pagina.de/MusTradAst <telloytito@asturies.org>
A:Asturies
O:Os Coutos (Ibias)
Z:Métodu de Gaita 87
M:3/8
L:1/8
Q:3/8=80
E:Comp.
K:C
G
|: c2 B|GAB|c>BA|B2 G|B2 A|GFG|~A>GF|[1 E2 G :|[2 E G/G/G/G/|
|: G ~A/G/F/E/|D F/F/F/F/|F ~G/F/E/D/|[1 C G/G/G/G/ :|[2 C C/D/E/F/|
|: G>FG|~G C/D/E/F/|A>FA|~A C/D/E/F/ :|
|G>FG|~G C/D/E/F/|A>FA|~A G/A/B/c/|
A>GA|~A G/A/B/c/|A>GA|~A G/A/B/c/|
~dcB|~AGF|~FED|CEG|
CEG|C E/E/G/G/|C E/E/G/G/|CEG|FDC|B,~DB,|C3-|C2 G/G/|"fin"
|: F2 E|CDE|F>ED|E2 C|E2 D|CB,C|D3|C3-|C2 G/G/ :|
"repetir y acabar en fin"
